X: 703
T: Siege of Buda
P: Longways for as many as will
%R: march, reel
B: "The Dancing-Master: Containing Directions and Tunes for Dancing" printed by W. Pearson for John Walsh, London ca. 1709
S: 7: DMDfD http://digital.nls.uk/special-collections-of-printed-music/pageturner.cfm?id=89751228 p.147 "O 2"
Z: 2013 John Chambers <jc:trillian.mit.edu>
N: Repeat symbols added to match the multiple endings.
M: C|
L: 1/8
K: C
% - - - - - - - - - - - - - - - - - - - - - - - - -
|:\
c2 G2 c2 d2 | e2 c2 c2 ef |\
g2 g2 fe fg |[1 e4 e4 :|[2 e6 \
|: cd |\
e2 e2 d2 d2 | cB cd B2B2 |
cB cd ed cB | A2 A2 A2 Bc |\
d2 d2 d2 e2 | dc BA G2 gf |\
e2 fe dc de |[1 c6 :|[2 c8 |]
% - - - - - - - - - - - - - - - - - - - - - - - - -
%%begintext align
%% The 1. cu. back to back, and the 2. cu. at the same time do the like, then 1. and 2. man back to back,
%% the we. doing the like at the same time.
%%endtext
%%sep 1 1 300
%%begintext align
%% The 1. and 2. man take hands, the we. doing the like, and change over, then fall back and cross over
%% with their Partners, then all four take hands and go quite round, and the 1. cu. to their Partners, and
%% so cast off.
%% [DMDfD]
%%endtext
%%sep 1 8 500

%%sep 1 1 500
%%sep 1 1 500
